X: 13
T:Major Scales
C:1st position
N:Transcribed by Rod B.
L:1/8
Q:1/4=152
M:4/4
K:C
G,A, B,C DE ^FG | AB cd e^f g2 | g^f ed cB AG | ^FE DC B,A, G,2 | G,B, DG Bd gd | 
BG DB, G,4 | _A,_B, C_D _EF G_A | _Bc _d_e fg _a2 | _ag f_e _dc _B_A | GF _E_D C_B, _A,2 | 
_A,C _E_A c_e _ae | c_A _EC _A,4 | A,B, ^CD E^F ^GA | B^c de ^f^g a2 | a^g ^fe d^c BA | 
^G^F ED ^CB, A,2 | A,^C EA ^ce ae | ^cA E^C A,4 | _B,C D_E FG A_B | cd _ef ga _b2 | 
_ba gf _ed c_B | AG F_E DC _B,2 | _B,D F_B df _bf | d_B FD _B,4 | B,^C ^DE ^F^G ^AB | 
^c^d e^f ^g^a b2 | b^a ^g^f e^d ^cB | ^A^G ^FE ^D^C B,2 | B,^D ^FB ^d^f bf | ^dB ^F^D B,4 | 
CD EF GA Bc | de fg a"4"b "4"c'2 | "4"c'"4"b ag fe dc | BA GF ED C2 | CE Gc eg c'g | 
ec GE C4 | _D_E F_G _A_B c_d | c_B _A_G F_E _D2 | _DF _A_d AF D2 | DE ^FG AB ^cd | 
^cB AG ^FE D2 | D^F Ad AF D2 | _EF G_A _Bc d_e | dc _B_A GF _E2 | _EG _B_e BG E2 | 
E^F ^GA B^c ^de | ^d^c BA ^G^F E2 | E^G Be BG E2 | FG A_B cd ef | ed c_B AG F2 | 
FA cf cA F2 | ^F^G ^AB ^c^d f^f | f^d ^cB ^A^G ^F2 | ^F^A ^c^f cA F2 |

